X:271
T:27. THE WILLOW TREE (48 bar jigs)
T:Sweets of May, The
R:Jig
O:Ireland
M:6/8
K:G
P:A
d2c|\
BAG AGF|G2G G2A|B2G GAB|c3 d2c|\
BAG AGF|G2G G2A|BdB cAF|[1 G3 :|[2 (G3 G3)|
P:B
AAA A2G|E2F G3|AAA c2d|e2d c2B|\
AAA A2G|E2F G3|A2A BAG|1 (A3 A3) :|2 A3 B2c|
P:C
d2d d^cd|D3 D3|c2c cBc|D3 DEF|\
G2F G2A|B2A B2c|ded cBA|[1 G3 B2c:|[2 (G3 G3)|
